X:1
T:Title
%%score { 1 | ( 2 3 ) }
L:1/8
M:4/4
K:E
V:1 treble nm="Grand Piano"
V:2 bass 
V:3 bass 
V:1
 z4 z2[Q:1/4=100] [GB]A | G2 G>G G2 FE | [Ge]2 [Ge]>[Ge] [Ge]2 [Bd][Ac] | %3
 [GB]2 [FA]>[EG] [EG]2 [DF][CE] | [DF]6 [DB][DA] | G2 G>G G2 FE | [Ge]2 [Ge]>[Ge] [Ge]2 EF | %7
 G2 BA G2 [A,DF]>[A,DF] | [G,E]6 z2 | [B,GB]2 z2 [Ge]2 z2 | G6 GA | %11
 [B,GB]2 [B,FA]>[B,EG] [B,EG]2 [A,DF][G,CE] | [B,DF]6 [DB][DA] | G2 G>G [EA]2 [EA]>[EA] | %14
[M:9/8] [B,EB]2 [B,EB]- [B,EB]/[B,EB]/ [Ec]2- [Ec]ec | %15
[M:4/4] [B,EB]2 [G,CE][CEF] [B,EG]2 [A,DF]>[A,DF] |[M:3/4] [G,E]6 |] %17
V:2
 z4 z2 z F | [E,B,E]2 [E,B,E]>[E,B,E] [E,B,E]2 [E,A,E][E,G,] | %2
 [E,B,]2 [E,B,]>[E,B,] [E,B,]2 [E,B,][E,B,] | [E,B,]2 [E,B,]>[E,B,] [E,B,]2 [B,,A,][C,G,] | %4
 [B,,B,]6 [B,,F,][B,,B,] | [E,B,E]2 [E,B,E]>[E,B,E] [E,B,E]2 [E,A,E][E,G,] | %6
 [E,B,]2 [E,B,]>[E,B,] [E,B,]2 [E,G,][E,A,E] | %7
 [E,B,E]2[K:treble] [G,B,E][A,CF][K:bass] [B,E]2 B,,>B,, | E,6 z2 | E,2 z2 [E,B,]2 z2 | %10
 [E,B,E]6 EF | E,2 E,>E, E,2 B,,C, | B,,6 [B,,F,][B,,B,] | %13
 [E,B,E]2 [E,B,E]>[E,B,E] [C,C]2 [C,C]>[C,C] |[M:9/8] z3 z3 z [A,,E]2 | %15
[M:4/4] G,,2 C,A,, B,,2 B,,>B,, |[M:3/4] E,6 |] %17
V:3
 z4 z2 [E,B,]2 | x8 | x8 | x8 | x8 | x8 | x8 | x2[K:treble] x2[K:bass] x4 | x8 | x8 | %10
 z4 z2 [E,B,]2 | x8 | x8 | x8 |[M:9/8] G,,2 G,,- G,,/G,,/ [A,,A,]2- [A,,A,]CA, |[M:4/4] x8 | %16
[M:3/4] x6 |] %17

